X:179
T:Hopkin's Hornpipe. Le4.179
Q:1/2=80
L:1/8
B:L.Leadley MS#4 c1850
Z:vmp.Mike Hicken 2016 www.village-music-project.org.uk
N:Tune 37 in "The Fiddler of Helperby"
M:C|
K:Bb
F2|B(ABc) (BFd)c|(BAB)c (BF)dc|Bcde fdgf|edcB AFGA|
B(AB)c (BF)dc|B(AB)(c B)Fdc|BfdB AFG(A|[D2B2]) [D2B2] [D2B2] :|
|:AB|cBAB cdec|dcBc defd|cBAB cded|cBAG Ffec|
B(AB)(c B)Fdc|B(AB)(c BF)dc|BfdB AFGA|[D2B2] [D2B2] [D2B2] :|

